5-network/10-long-polling/long-polling.svg

<?xml version="1.0" encoding="UTF-8"?>
<svg width="521px" height="320px" viewBox="0 0 521 320" version="1.1" xmlns="http://www.w3.org/2000/svg" xmlns:xlink="http://www.w3.org/1999/xlink">
    <!-- Generator: sketchtool 55.2 (78181) - https://sketchapp.com -->
    <title>long-polling.svg</title>
    <desc>Created with sketchtool.</desc>
    <g id="network" stroke="none" stroke-width="1" fill="none" fill-rule="evenodd">
        <g id="long-polling.svg">
            <text id="Browser" font-family="OpenSans-Regular, Open Sans" font-size="16" font-weight="normal" fill="#000000">
                <tspan x="26.5" y="74">Браузер</tspan>
            </text>
            <text id="Server" font-family="OpenSans-Regular, Open Sans" font-size="16" font-weight="normal" fill="#000000">
                <tspan x="27" y="226">Сервер</tspan>
            </text>
            <path id="Line" d="M457.091247,80.5 L450.319082,76.6906571 L450.809343,75.8190816 L460.019864,81 L450.809343,86.1809184 L450.319082,85.3093429 L457.091247,81.5 L66.5,81.5 L66.5,80.5 L457.091247,80.5 Z" fill="#000000" fill-rule="nonzero"></path>
            <path id="Line" d="M457.091247,205 L450.319082,201.190657 L450.809343,200.319082 L460.019864,205.5 L450.809343,210.680918 L450.319082,209.809343 L457.091247,206 L65.5,206 L65.5,205 L457.091247,205 Z" fill="#000000" fill-rule="nonzero"></path>
            <text id="request" transform="translate(113.291381, 143.266023) rotate(76.000000) translate(-113.291381, -143.266023) " font-family="PTMono-Bold, PT Mono" font-size="14" font-weight="bold" line-spacing="18" fill="#8A704D">
                <tspan x="87.8913811" y="146.266023">запрос</tspan>
            </text>
            <text id="connection-hangs" font-family="OpenSans-Regular, Open Sans" font-size="14" font-weight="normal" line-spacing="18" fill="#8A704D">
                <tspan x="121.5" y="227">соединение</tspan>
                <tspan x="143.019043" y="245">висит</tspan>
            </text>
            <text id="connection-breaks-en" font-family="OpenSans-Regular, Open Sans" font-size="12" font-weight="normal" line-spacing="18" fill="#8A704D">
                <tspan x="167.709961" y="264">соединение разорвано</tspan>
                <tspan x="194.098633" y="282">конец запроса</tspan>
            </text>
            <path id="Line-3" d="M115.697507,193.140039 L88.2907773,81.2666649 L90.2333351,80.7907773 L117.640065,192.664151 L123.467739,191.236488 L120,206.5 L109.869834,194.567702 L115.697507,193.140039 Z" fill="#EE6B47" fill-rule="nonzero"></path>
            <text id="data" transform="translate(206.380494, 143.266023) rotate(284.000000) translate(-206.380494, -143.266023) " font-family="PTMono-Bold, PT Mono" font-size="14" font-weight="bold" line-spacing="18" fill="#8A704D">
                <tspan x="181.580494" y="146.266023">данные</tspan>
            </text>
            <path id="Line-2" d="M230.540283,95.776351 L200.704616,206.226179 L198.773821,205.704616 L228.609487,95.2547877 L222.8171,93.6900979 L233.225828,82 L236.332669,97.3410408 L230.540283,95.776351 Z" fill="#EE6B47" fill-rule="nonzero"></path>
            <path id="Line-2-Copy" d="M374.540283,95.776351 L344.704616,206.226179 L342.773821,205.704616 L372.609487,95.2547877 L366.8171,93.6900979 L377.225828,82 L380.332669,97.3410408 L374.540283,95.776351 Z" fill="#EE6B47" fill-rule="nonzero"></path>
            <text id="request-copy" transform="translate(260.291381, 143.266023) rotate(76.000000) translate(-260.291381, -143.266023) " font-family="PTMono-Bold, PT Mono" font-size="14" font-weight="bold" line-spacing="18" fill="#8A704D">
                <tspan x="234.891381" y="146.266023">запрос</tspan>
            </text>
            <text id="connection-hangs-copy" font-family="OpenSans-Regular, Open Sans" font-size="14" font-weight="normal" line-spacing="18" fill="#8A704D">
                <tspan x="265.5" y="227">соединение</tspan>
                <tspan x="287.019043" y="245">висит</tspan>
            </text>
            <path id="Line-3-Copy-3" d="M262.697507,193.140039 L235.290777,81.2666649 L237.233335,80.7907773 L264.640065,192.664151 L270.467739,191.236488 L267,206.5 L256.869834,194.567702 L262.697507,193.140039 Z" fill="#EE6B47" fill-rule="nonzero"></path>
            <text id="request-copy-2" transform="translate(404.291381, 143.266023) rotate(76.000000) translate(-404.291381, -143.266023) " font-family="PTMono-Bold, PT Mono" font-size="14" font-weight="bold" line-spacing="18" fill="#8A704D">
                <tspan x="378.891381" y="146.266023">запрос</tspan>
            </text>
            <path id="Line-3-Copy-4" d="M406.697507,193.140039 L379.290777,81.2666649 L381.233335,80.7907773 L408.640065,192.664151 L414.467739,191.236488 L411,206.5 L400.869834,194.567702 L406.697507,193.140039 Z" fill="#EE6B47" fill-rule="nonzero"></path>
            <text id="data-copy" transform="translate(350.380494, 143.266023) rotate(284.000000) translate(-350.380494, -143.266023) " font-family="PTMono-Bold, PT Mono" font-size="14" font-weight="bold" line-spacing="18" fill="#8A704D">
                <tspan x="325.580494" y="146.266023">данные</tspan>
            </text>
            <path d="M235,40.75 L235,241.75" id="Line" stroke="#979797" stroke-linecap="square" stroke-dasharray="3,3"></path>
            <text id="connection-breaks-en-copy" font-family="OpenSans-Regular, Open Sans" font-size="12" font-weight="normal" line-spacing="18" fill="#8A704D">
                <tspan x="311.709961" y="264">соединение разорвано</tspan>
                <tspan x="338.098633" y="282">конец запроса</tspan>
            </text>
            <path d="M379,40.75 L379,241.75" id="Line-Copy" stroke="#979797" stroke-linecap="square" stroke-dasharray="3,3"></path>
        </g>
    </g>
</svg>

<svg xmlns="http://www.w3.org/2000/svg" width="521" height="320" viewBox="0 0 521 320"><defs><style>@import url(https://fonts.googleapis.com/css?family=Open+Sans:bold,italic,bolditalic%7CPT+Mono);@font-face{font-family:&apos;PT Mono&apos;;font-weight:700;font-style:normal;src:local(&apos;PT MonoBold&apos;),url(/pack/modules/styles/blocks/font/PTMonoBold.woff2) format(&apos;woff2&apos;),url(/pack/modules/styles/blocks/font/PTMonoBold.woff) format(&apos;woff&apos;),url(/pack/modules/styles/blocks/font/PTMonoBold.ttf) format(&apos;truetype&apos;)}</style></defs><g id="network" fill="none" fill-rule="evenodd" stroke="none" stroke-width="1"><g id="long-polling.svg"><text id="Browser" fill="#000" font-family="OpenSans-Regular, Open Sans" font-size="16" font-weight="normal"><tspan x="26.5" y="74">Браузер</tspan></text><text id="Server" fill="#000" font-family="OpenSans-Regular, Open Sans" font-size="16" font-weight="normal"><tspan x="27" y="226">Сервер</tspan></text><path id="Line" fill="#000" fill-rule="nonzero" d="M457.091 80.5l-6.772-3.81.49-.87 9.21 5.18-9.21 5.18-.49-.87 6.772-3.81H66.5v-1h390.591zM457.091 205l-6.772-3.81.49-.87 9.21 5.18-9.21 5.18-.49-.87 6.772-3.81H65.5v-1h391.591z"/><text id="request" fill="#8A704D" font-family="PTMono-Bold, PT Mono" font-size="14" font-weight="bold" transform="rotate(76 113.291 143.266)"><tspan x="87.891" y="146.266">запрос</tspan></text><text id="connection-hangs" fill="#8A704D" font-family="OpenSans-Regular, Open Sans" font-size="14" font-weight="normal"><tspan x="121.5" y="227">соединение</tspan> <tspan x="143.019" y="245">висит</tspan></text><text id="connection-breaks-en" fill="#8A704D" font-family="OpenSans-Regular, Open Sans" font-size="12" font-weight="normal"><tspan x="167.71" y="264">соединение разорвано</tspan> <tspan x="194.099" y="282">конец запроса</tspan></text><path id="Line-3" fill="#EE6B47" fill-rule="nonzero" d="M115.698 193.14L88.29 81.267l1.942-.476 27.407 111.873 5.828-1.428L120 206.5l-10.13-11.932 5.828-1.428z"/><text id="data" fill="#8A704D" font-family="PTMono-Bold, PT Mono" font-size="14" font-weight="bold" transform="rotate(-76 206.38 143.266)"><tspan x="181.58" y="146.266">данные</tspan></text><path id="Line-2" fill="#EE6B47" fill-rule="nonzero" d="M230.54 95.776l-29.835 110.45-1.931-.521 29.835-110.45-5.792-1.565L233.226 82l3.107 15.341-5.793-1.565z"/><path id="Line-2-Copy" fill="#EE6B47" fill-rule="nonzero" d="M374.54 95.776l-29.835 110.45-1.931-.521 29.835-110.45-5.792-1.565L377.226 82l3.107 15.341-5.793-1.565z"/><text id="request-copy" fill="#8A704D" font-family="PTMono-Bold, PT Mono" font-size="14" font-weight="bold" transform="rotate(76 260.291 143.266)"><tspan x="234.891" y="146.266">запрос</tspan></text><text id="connection-hangs-copy" fill="#8A704D" font-family="OpenSans-Regular, Open Sans" font-size="14" font-weight="normal"><tspan x="265.5" y="227">соединение</tspan> <tspan x="287.019" y="245">висит</tspan></text><path id="Line-3-Copy-3" fill="#EE6B47" fill-rule="nonzero" d="M262.698 193.14L235.29 81.267l1.942-.476 27.407 111.873 5.828-1.428L267 206.5l-10.13-11.932 5.828-1.428z"/><text id="request-copy-2" fill="#8A704D" font-family="PTMono-Bold, PT Mono" font-size="14" font-weight="bold" transform="rotate(76 404.291 143.266)"><tspan x="378.891" y="146.266">запрос</tspan></text><path id="Line-3-Copy-4" fill="#EE6B47" fill-rule="nonzero" d="M406.698 193.14L379.29 81.267l1.942-.476 27.407 111.873 5.828-1.428L411 206.5l-10.13-11.932 5.828-1.428z"/><text id="data-copy" fill="#8A704D" font-family="PTMono-Bold, PT Mono" font-size="14" font-weight="bold" transform="rotate(-76 350.38 143.266)"><tspan x="325.58" y="146.266">данные</tspan></text><path id="Line" stroke="#979797" stroke-dasharray="3,3" stroke-linecap="square" d="M235 40.75v201"/><text id="connection-breaks-en-copy" fill="#8A704D" font-family="OpenSans-Regular, Open Sans" font-size="12" font-weight="normal"><tspan x="311.71" y="264">соединение разорвано</tspan> <tspan x="338.099" y="282">конец запроса</tspan></text><path id="Line-Copy" stroke="#979797" stroke-dasharray="3,3" stroke-linecap="square" d="M379 40.75v201"/></g></g></svg>
